svgs/sharp-solid/gamepad.svg

<svg xmlns="http://www.w3.org/2000/svg" viewBox="0 0 640 512"><!--! Font Awesome Pro 6.6.0 by @fontawesome - https://fontawesome.com License - https://fontawesome.com/license (Commercial License) Copyright 2024 Fonticons, Inc. --><path d="M640 64L0 64 0 448l640 0 0-384zM496 168a40 40 0 1 1 0 80 40 40 0 1 1 0-80zM392 304a40 40 0 1 1 80 0 40 40 0 1 1 -80 0zM168 176l48 0 0 56 56 0 0 48-56 0 0 56-48 0 0-56-56 0 0-48 56 0 0-56z"/></svg>

<svg xmlns="http://www.w3.org/2000/svg" viewBox="0 0 640 512"><!--! Font Awesome Pro 6.4.0 by @fontawesome - https://fontawesome.com License - https://fontawesome.com/license (Commercial License) Copyright 2023 Fonticons, Inc. --><path d="M640 64H0V448H640V64zM496 168a40 40 0 1 1 0 80 40 40 0 1 1 0-80zM392 304a40 40 0 1 1 80 0 40 40 0 1 1 -80 0zM168 176h48v56h56v48H216v56H168V280H112V232h56V176z"/></svg>
